static/img/kroki/776f2bf63ce56d993dec0c89714ac6fa.svg

<?xml version="1.0" encoding="us-ascii" standalone="no"?><svg xmlns="http://www.w3.org/2000/svg" xmlns:xlink="http://www.w3.org/1999/xlink" contentStyleType="text/css" height="152px" preserveAspectRatio="none" style="width:356px;height:152px;" version="1.1" viewBox="0 0 356 152" width="356px" zoomAndPan="magnify"><defs/><g><!--class azure_network_interface--><g id="elem_azure_network_interface"><rect codeLine="23" fill="#3D176E" height="39.7891" id="azure_network_interface" rx="2.5" ry="2.5" style="stroke:#000D19;stroke-width:0.5;" width="250" x="53" y="106.79"/><ellipse cx="68" cy="126.6845" fill="#ADD1B2" rx="11" ry="11" style="stroke:#181818;stroke-width:1.0;"/><path d="M70.9688,132.3252 Q70.3906,132.622 69.75,132.7627 Q69.1094,132.9189 68.4063,132.9189 Q65.9063,132.9189 64.5781,131.2783 Q63.2656,129.622 63.2656,126.497 Q63.2656,123.372 64.5781,121.7158 Q65.9063,120.0595 68.4063,120.0595 Q69.1094,120.0595 69.75,120.2158 Q70.4063,120.372 70.9688,120.6689 L70.9688,123.3877 Q70.3438,122.8095 69.75,122.5439 Q69.1563,122.2627 68.5313,122.2627 Q67.1875,122.2627 66.5,123.3408 Q65.8125,124.4033 65.8125,126.497 Q65.8125,128.5908 66.5,129.6689 Q67.1875,130.7314 68.5313,130.7314 Q69.1563,130.7314 69.75,130.4658 Q70.3438,130.1845 70.9688,129.6064 L70.9688,132.3252 Z " fill="#000000"/><text fill="#D9B8FF" font-family="Helvetica" font-size="17" lengthAdjust="spacing" textLength="208" x="87" y="132.5698">azure_network_interface</text></g><!--class azure_network_private_link_service--><g id="elem_azure_network_private_link_service"><rect codeLine="26" fill="#3D176E" height="39.7891" id="azure_network_private_link_service" rx="2.5" ry="2.5" style="stroke:#000D19;stroke-width:0.5;" width="342" x="7" y="7"/><ellipse cx="22" cy="26.8945" fill="#ADD1B2" rx="11" ry="11" style="stroke:#181818;stroke-width:1.0;"/><path d="M24.9688,32.5352 Q24.3906,32.832 23.75,32.9727 Q23.1094,33.1289 22.4063,33.1289 Q19.9063,33.1289 18.5781,31.4883 Q17.2656,29.832 17.2656,26.707 Q17.2656,23.582 18.5781,21.9258 Q19.9063,20.2695 22.4063,20.2695 Q23.1094,20.2695 23.75,20.4258 Q24.4063,20.582 24.9688,20.8789 L24.9688,23.5977 Q24.3438,23.0195 23.75,22.7539 Q23.1563,22.4727 22.5313,22.4727 Q21.1875,22.4727 20.5,23.5508 Q19.8125,24.6133 19.8125,26.707 Q19.8125,28.8008 20.5,29.8789 Q21.1875,30.9414 22.5313,30.9414 Q23.1563,30.9414 23.75,30.6758 Q24.3438,30.3945 24.9688,29.8164 L24.9688,32.5352 Z " fill="#000000"/><text fill="#D9B8FF" font-family="Helvetica" font-size="17" lengthAdjust="spacing" textLength="300" x="41" y="32.7798">azure_network_private_link_service</text></g><!--link azure_network_private_link_service to azure_network_interface--><g id="link_azure_network_private_link_service_azure_network_interface"><path codeLine="29" d="M178,47.22 C178,64.36 178,83.27 178,100.41 " fill="none" id="azure_network_private_link_service-to-azure_network_interface" style="stroke:#1A83AF;stroke-width:2.0;"/><polygon fill="#1A83AF" points="178,106.41,182,97.41,178,101.41,174,97.41,178,106.41" style="stroke:#1A83AF;stroke-width:2.0;"/></g><!--SRC=[ZT1DIyD040RWUtx5Gi-5ng1DBq8C5BqKiTv4mZGxsov9TiFijA4L_xkDjR8c_V2wy-pCExFI4WLMDMz5XTK2oGMkqAO6WaeaHBP9RMb939G25OsxnQarV1NCe4BnYEK6MUVG5QyhdHS6dHCtNka1yc99TctaeJqJ6BSleM5FfIKubp2JNgmPlJ1oieYLwifkqq4am_4TzfWbYVH3HgEH32TTSdNKnRr_nLplK8J-qMQMiHUpD-9RNKpP2YzaRz5Z_Mp6Pv1IcwMuzTvU3fd88Frvdwz0sgRL2ahdZt6CX9QtDQQzhN0IIpK-YP_EuI1lJoTWjoRC379ZgSYqsNzKaAFu28BFawGclG76hDIco1pIHX_rFzpmRH0cSPHCtuVtvqO7Nm00]--></g></svg>

<svg xmlns="http://www.w3.org/2000/svg" width="356" height="152" viewBox="0 0 356 152"><rect width="250" height="39.789" x="53" y="106.79" fill="#3D176E" rx="2.5" ry="2.5" style="stroke:#000d19;stroke-width:.5"/><circle cx="68" cy="126.684" r="11" fill="#ADD1B2" style="stroke:#181818;stroke-width:1"/><path d="M70.969 132.325q-.578.297-1.219.438-.64.156-1.344.156-2.5 0-3.828-1.64-1.312-1.657-1.312-4.782t1.312-4.781q1.328-1.656 3.828-1.656.703 0 1.344.156.656.156 1.219.453v2.719q-.625-.579-1.219-.844-.594-.281-1.219-.281-1.344 0-2.031 1.078-.687 1.062-.687 3.156t.687 3.172q.688 1.062 2.031 1.062.625 0 1.219-.265.594-.281 1.219-.86z"/><text x="87" y="132.57" fill="#D9B8FF" font-family="Helvetica" font-size="17" textLength="208">azure_network_interface</text><rect width="342" height="39.789" x="7" y="7" fill="#3D176E" rx="2.5" ry="2.5" style="stroke:#000d19;stroke-width:.5"/><circle cx="22" cy="26.895" r="11" fill="#ADD1B2" style="stroke:#181818;stroke-width:1"/><path d="M24.969 32.535q-.578.297-1.219.438-.64.156-1.344.156-2.5 0-3.828-1.64-1.312-1.657-1.312-4.782t1.312-4.781q1.328-1.656 3.828-1.656.703 0 1.344.156.656.156 1.219.453v2.719q-.625-.578-1.219-.844-.594-.281-1.219-.281-1.343 0-2.031 1.078-.687 1.062-.687 3.156t.687 3.172q.688 1.062 2.031 1.062.625 0 1.219-.265.594-.281 1.219-.86z"/><text x="41" y="32.78" fill="#D9B8FF" font-family="Helvetica" font-size="17" textLength="300">azure_network_private_link_service</text><path fill="none" d="M178 47.22v53.19" style="stroke:#1a83af;stroke-width:2"/><path fill="#1A83AF" d="m178 106.41 4-9-4 4-4-4z" style="stroke:#1a83af;stroke-width:2"/></svg>
